X:122
T:The Marquis of Huntly's Farewell
S:Andrew Small of Carrickfergus, NLS MS 21738
M:4/4
L:1/8
Q:1/4=96
K:D
F|D2D>F A<A A>B|d>e ({de}f>)e ({e}d2) df|D2D>F A<A A>f|e>f (g/f/).e/.d/ ({c}B2)Bd|
  D2DF  A<A A>B|d>e ({de}f>)e     dBBf  |g2gb  a<ff>a |e>f (g/f/).e/.d/ ({c}B2)B||
b|(b/a/g/f/)       d'>f        e'>f           {c'}d'2   |(b/a/g/f/) d'>f         (ba)gf           |\
   ee'e'>b                    (e'/d'/c'/b/) ({^d'}e'2)  | be'e'c'            ({e'}d'>)c' ({c'}b>)a|
  (b/a/g/f/)       d'>f        e'>f          ({c'}d'>)c'|(b/a/g/f/) d'>f         (ba)gf           |\
  (g/a/b/c'/) ({e'}d'>)c' ({c'}b>)a           ({a}g>)f  | e>f      (g/f/e/d/) ({c}B2)         B  |]

